assets/icons/navigation/first_page.svg

<svg viewBox="0 0 24 24" xmlns="http://www.w3.org/2000/svg">
<path d="M16.35 17.6502L11.6 12.8752C11.4833 12.7752 11.3958 12.6585 11.3375 12.5252C11.2792 12.3919 11.25 12.2419 11.25 12.0752C11.25 11.9252 11.2792 11.7794 11.3375 11.6377C11.3958 11.496 11.4833 11.3752 11.6 11.2752L16.375 6.5002C16.5917 6.26686 16.8583 6.1502 17.175 6.1502C17.4917 6.1502 17.7667 6.26686 18 6.5002C18.2167 6.71686 18.325 6.98353 18.325 7.3002C18.325 7.61686 18.2167 7.89186 18 8.1252L14.025 12.0752L18 16.0502C18.2167 16.2669 18.325 16.5335 18.325 16.8502C18.325 17.1669 18.2167 17.4335 18 17.6502C17.7667 17.8502 17.4875 17.9502 17.1625 17.9502C16.8375 17.9502 16.5667 17.8502 16.35 17.6502ZM6.775 18.5502C6.44167 18.5502 6.16667 18.4419 5.95 18.2252C5.73333 18.0085 5.625 17.7419 5.625 17.4252V6.6002C5.625 6.26686 5.73333 5.99186 5.95 5.7752C6.16667 5.55853 6.44167 5.4502 6.775 5.4502C7.10833 5.4502 7.37917 5.55853 7.5875 5.7752C7.79583 5.99186 7.9 6.26686 7.9 6.6002V17.4252C7.9 17.7419 7.79583 18.0085 7.5875 18.2252C7.37917 18.4419 7.10833 18.5502 6.775 18.5502Z" fill="inherit"/>
</svg>

<svg viewBox="0 0 24 24" xmlns="http://www.w3.org/2000/svg"><path d="m16.4 17.7-4.8-4.8a1 1 0 0 1-.3-.4v-.9l.3-.3 4.8-4.8c.2-.2.5-.3.8-.3.3 0 .6 0 .8.3.2.2.3.5.3.8 0 .3 0 .6-.3.8l-4 4 4 4c.2.2.3.4.3.8 0 .3 0 .5-.3.8-.2.2-.5.3-.8.3-.4 0-.6-.1-.8-.3Zm-9.6.9a1.1 1.1 0 0 1-1.2-1.2V6.6a1.1 1.1 0 0 1 1.2-1.1c.3 0 .6 0 .8.3.2.2.3.5.3.8v10.8c0 .3-.1.6-.3.8a1 1 0 0 1-.8.4Z" fill="inherit"/></svg>
